X:844
T:The Gobby O
N:"Collected by F.O'Neill"
B:O'Neill's 844
Z:Transcribed by Dan G. Petersen, dangp@post6.tele.dk
M:6/8
L:1/8
K:A
A/B/|c2A AGA|E2A ABc|BAB GAG|dBG GAB|
c2A AGA|E2a a2b|age fedB|dcAA A2:|
E|A2B c2d|e2f g3|agf agfe|dBG G2E|
A2B c2d|efg a2b|age fedB|dcAA A2:|
